X:332
T:Lamentation for James Moray of Abercairney
T:Lament for Abercairney
T:Abercairney
C:Niel Gow
O:Scotland
Z:Nigel Gatherer
L:1/8
M:4/4
K:G
B,|G,>B,DG EGDG|A>B c/B/A/G/ E2- EG|G,>B,DG EG Dg/e/|
dG d/c/B/A/ G2- G>B,|G,>B,DG EGDG|A>B c/B/A/G/ E2- EG|
G,>B,DG EG Dg/e/|dG d/c/B/A/ G2- G||e|de/f/ gd edgB|
ca/c/ Bg/B/ A2- A>B|G,>B,DG EG Dg/e/|dG d/c/B/A/ G2- G>e|de/f/ gd edgB|
c/B/c/a/ B/A/B/g/ A2- AB/c/|e/d/c/B/ d/c/B/A/ c/B/A/G/ B/A/G/F/|\
A/G/F/E/ D/E/D/B,/G,2-G,|]
<end>
<start>
